!!!OTL: Die verkaufte Muellerin Es wollt ein Mueller frueh aufstehn,
!!!ARE: Europa, Suedosteuropa, Rumaenien, Siebenbuergen
!!!YOR: 4, S. 342
!!    1931 gedruckt in Herrmannstadt
!!!SCT: Q0086N
!!!YEM: Copyright 1995, estate of Helmut Schaffrath.
**kern
*ICvox
*Ivox
*M3/4
*k[f#]
*G:
{4d
=1
2g
4d
=2
2g
4cc
=3
2b
4a
=4
2g}
{4d
=5
2g
4d
=6
2g
4cc
=7
2b
4a
=8
2g
4r}
=9
{2dd
4gg
=10
2ee
4dd
=11
2cc
4b
=12
2b
4dd
=13
2a}
==
!!!AGN: Ballade, Menschenhandel, Rettung, Hinrichtung
!! Verzierungen (Vor- und Nachschlaege) . Taktart entsprechend
!!    den Taktstrichen in 3/4 geaendert.
!!!ONB: ESAC (Essen Associative Code) Database: BALLADE
!!!AMT: simple triple
!!!AIN: vox
!!!EED: Helmut Schaffrath
!!!EEV: 1.0
*-
